public/icons/laravel.svg

<?xml version="1.0" encoding="UTF-8" standalone="no" ?>
<!DOCTYPE svg PUBLIC "-//W3C//DTD SVG 1.1//EN" "http://www.w3.org/Graphics/SVG/1.1/DTD/svg11.dtd">
<svg xmlns="http://www.w3.org/2000/svg" xmlns:xlink="http://www.w3.org/1999/xlink" version="1.1" width="1080" height="1080" viewBox="0 0 1080 1080" xml:space="preserve">
<desc>Created with Fabric.js 5.2.4</desc>
<defs>
</defs>
<g transform="matrix(1 0 0 1 540 540)" id="2d831029-7c52-4772-85d0-2cc7e614e5d8"  >
</g>
<g transform="matrix(1 0 0 1 540 540)" id="d6168086-9d48-4895-8a10-8bb75ebf5a68"  >
<rect style="stroke: none; stroke-width: 1; stroke-dasharray: none; stroke-linecap: butt; stroke-dashoffset: 0; stroke-linejoin: miter; stroke-miterlimit: 4; fill: none; fill-rule: nonzero; opacity: 1;" vector-effect="non-scaling-stroke"  x="-540" y="-540" rx="0" ry="0" width="1080" height="1080" />
</g>
<g transform="matrix(1 0 0 1 540 540)" id="a18648c7-7ed8-4703-b081-379d0dd25f69"  >
<path style="stroke: rgb(0,0,0); stroke-width: 0; stroke-dasharray: none; stroke-linecap: butt; stroke-dashoffset: 0; stroke-linejoin: miter; stroke-miterlimit: 4; fill: rgb(251,150,56); fill-rule: nonzero; opacity: 1;" vector-effect="non-scaling-stroke"  transform=" translate(-255.99, -256)" d="M 504.4 115.83 C 504.321349053857 115.59756207339638 504.2278224836016 115.37042611706185 504.12 115.14999999999999 C 503.9768667880205 114.7198978400304 503.7996375379662 114.30190432575124 503.59000000000003 113.89999999999999 C 503.42786633606966 113.65026233886466 503.2473676448076 113.4129399855386 503.05 113.19 C 502.8300790671123 112.86178520336878 502.5895980199924 112.54782383629565 502.33 112.25 C 502.09999999999997 112.03 501.81 111.85 501.56 111.65 C 501.2747822947719 111.4044045618883 500.9741704578639 111.17727561844671 500.66 110.97 L 404.4 55.55 C 401.92479138593194 54.120937640367345 398.875208614068 54.120937640367345 396.4 55.55 L 300.12 111 L 300.12 111 C 299.8110648557784 111.20937530631423 299.5170257700994 111.43992868031252 299.24 111.69 C 298.96744072055793 111.87311973017412 298.70690602277614 112.0735310361601 298.46000000000004 112.28999999999999 C 298.1981279487618 112.5824323164383 297.95751369364575 112.8932257292965 297.74 113.22 C 297.57 113.46 297.35 113.67 297.2 113.92999999999999 C 296.99776527329493 114.33404714329782 296.8240088362221 114.75173088626126 296.68 115.17999999999999 C 296.6 115.41 296.47 115.61999999999999 296.40000000000003 115.86 C 296.21663477276155 116.53821165210707 296.12250759332215 117.23744212794266 296.12000000000006 117.94 L 296.12000000000006 223.18 L 215.90000000000006 269.37 L 215.90000000000006 63.44 C 215.90170041229902 62.73387084051161 215.80750653927907 62.03078085975545 215.62000000000006 61.349999999999994 C 215.56000000000006 61.10999999999999 215.42000000000007 60.89999999999999 215.34000000000006 60.669999999999995 C 215.20028260579434 60.243359923838334 215.02638559750037 59.82868244252198 214.82000000000005 59.42999999999999 C 214.68000000000006 59.169999999999995 214.45000000000005 58.959999999999994 214.28000000000006 58.709999999999994 C 214.06007906711235 58.381785203368786 213.8195980199925 58.067823836295645 213.56000000000006 57.769999999999996 C 213.31058559128562 57.556603084742015 213.05023342813527 57.35633219001099 212.78000000000006 57.169999999999995 C 212.49977470694097 56.926858748159454 212.20596841982314 56.69982661720478 211.90000000000006 56.48999999999999 L 211.90000000000006 56.489999999999995 L 115.61 1.07 C 113.13479138593198 -0.3590623596326554 110.08520861406802 -0.35906235963265565 107.61 1.070000000000001 L 11.34 56.49 L 11.34 56.49 C 11.027447693323154 56.694374080876955 10.733031776808216 56.925222924507985 10.459999999999999 57.18 C 10.184218008404896 57.36305685718474 9.920352529815458 57.56346101813874 9.669999999999996 57.78 C 9.411357899685427 58.07258934898246 9.174079930221135 58.38339006954836 8.959999999999996 58.71 C 8.779999999999998 58.96 8.559999999999997 59.17 8.409999999999997 59.43 C 8.20508049544851 59.828093682255826 8.03446304848008 60.24292825919868 7.899999999999998 60.67 C 7.790780668565937 60.88768807491454 7.6939594255246595 61.11137853297542 7.609999999999998 61.34 C 7.426029539905747 62.02490287216286 7.331906989733367 62.730821998455696 7.329999999999994 63.44000000000001 L 7.3299999999999965 393.14 C 7.322197658447307 396.005908884114 8.848034771669168 398.65705086833697 11.329999999999995 400.09 L 203.82999999999998 510.92999999999995 C 204.25794360334132 511.1457965463891 204.70274630213564 511.32639313086196 205.16 511.46999999999997 C 205.37 511.54999999999995 205.57 511.66999999999996 205.79 511.72999999999996 C 207.1329754156411 512.0898779963724 208.54702458435887 512.0898779963724 209.89 511.72999999999996 C 210.08999999999997 511.67999999999995 210.26 511.56999999999994 210.44 511.50999999999993 C 210.92282414426828 511.3582385774246 211.39130907903834 511.16415196159124 211.84 510.92999999999995 L 404.4 400.09 C 406.8819652283308 398.65705086833697 408.40780234155267 396.005908884114 408.4 393.14 L 408.4 287.88 L 500.64 234.76999999999998 C 503.1375603394719 233.32818691994927 504.6658147495343 230.65374170234 504.64 227.76999999999998 L 504.64 117.92 C 504.6455302812475 117.21615285958134 504.56493158790363 116.51427257171231 504.4 115.83 Z M 111.6 17.28 L 111.6 17.28 L 191.79 63.43 L 111.58999999999999 109.61 L 31.41 63.44 Z M 199.85 77.28 L 199.85 278.6 L 153.32 305.39000000000004 L 119.63 324.79 L 119.63 123.5 L 166.16 96.71000000000001 Z M 199.85 490.05999999999995 L 23.37 388.5 L 23.37 77.32 L 57.06 96.7 L 103.58000000000001 123.5 L 103.58000000000001 338.68 C 103.60031147878756 338.9822977924654 103.64039724569488 339.2829410442703 103.70000000000002 339.58 C 103.7239448384847 339.9767619838209 103.77742629065594 340.37118769358375 103.86000000000001 340.76 L 103.86000000000001 340.76 C 103.9616546694876 341.0699569284294 104.08875399095267 341.37098163716246 104.24000000000001 341.65999999999997 C 104.35136098321136 342.0046508332558 104.49186858707748 342.3391927472228 104.66000000000001 342.65999999999997 L 104.66000000000001 342.65999999999997 C 104.84484125757317 342.9313165542515 105.0451737645619 343.19174881333686 105.26 343.43999999999994 C 105.46007792115809 343.73509541158796 105.6806197391727 344.015784998152 105.92 344.2799999999999 L 105.92 344.2799999999999 C 106.15 344.49999999999994 106.44 344.6599999999999 106.69 344.8599999999999 C 106.96303625749378 345.0972131439308 107.25023197475457 345.317619159503 107.55 345.5199999999999 L 107.55 345.5199999999999 L 107.55 345.5199999999999 L 199.74 397.69999999999993 Z M 207.85 383.88999999999993 L 127.78999999999999 338.56999999999994 L 211.88 290.15999999999997 L 304.14 237.04999999999995 L 384.27 283.17999999999995 L 325.46999999999997 316.73999999999995 Z M 392.37 388.4599999999999 L 215.88 490.11 L 215.88 397.8 L 346.6 323.2 L 392.37 297.05 Z M 392.37 269.3299999999999 L 358.68 250 L 312.15 223.21 L 312.15 131.79 L 345.84 151.19 L 392.37 178 Z M 400.37 164.04999999999993 L 320.17 117.87999999999992 L 400.37 71.71999999999993 L 480.55 117.86999999999992 Z M 408.37 269.3299999999999 L 408.37 178 L 455 151.19 L 488.68 131.79 L 488.68 223.18 L 488.68 223.18 Z" stroke-linecap="round" />
</g>
<g transform="matrix(NaN NaN NaN NaN 0 0)"  >
<g style=""   >
</g>
</g>
</svg>

<?xml version="1.0" ?><svg viewBox="0 0 512 512" xmlns="http://www.w3.org/2000/svg"><path d="M504.4,115.83a5.72,5.72,0,0,0-.28-.68,8.52,8.52,0,0,0-.53-1.25,6,6,0,0,0-.54-.71,9.36,9.36,0,0,0-.72-.94c-.23-.22-.52-.4-.77-.6a8.84,8.84,0,0,0-.9-.68L404.4,55.55a8,8,0,0,0-8,0L300.12,111h0a8.07,8.07,0,0,0-.88.69,7.68,7.68,0,0,0-.78.6,8.23,8.23,0,0,0-.72.93c-.17.24-.39.45-.54.71a9.7,9.7,0,0,0-.52,1.25c-.08.23-.21.44-.28.68a8.08,8.08,0,0,0-.28,2.08V223.18l-80.22,46.19V63.44a7.8,7.8,0,0,0-.28-2.09c-.06-.24-.2-.45-.28-.68a8.35,8.35,0,0,0-.52-1.24c-.14-.26-.37-.47-.54-.72a9.36,9.36,0,0,0-.72-.94,9.46,9.46,0,0,0-.78-.6,9.8,9.8,0,0,0-.88-.68h0L115.61,1.07a8,8,0,0,0-8,0L11.34,56.49h0a6.52,6.52,0,0,0-.88.69,7.81,7.81,0,0,0-.79.6,8.15,8.15,0,0,0-.71.93c-.18.25-.4.46-.55.72a7.88,7.88,0,0,0-.51,1.24,6.46,6.46,0,0,0-.29.67,8.18,8.18,0,0,0-.28,2.1v329.7a8,8,0,0,0,4,6.95l192.5,110.84a8.83,8.83,0,0,0,1.33.54c.21.08.41.2.63.26a7.92,7.92,0,0,0,4.1,0c.2-.05.37-.16.55-.22a8.6,8.6,0,0,0,1.4-.58L404.4,400.09a8,8,0,0,0,4-6.95V287.88l92.24-53.11a8,8,0,0,0,4-7V117.92A8.63,8.63,0,0,0,504.4,115.83ZM111.6,17.28h0l80.19,46.15-80.2,46.18L31.41,63.44Zm88.25,60V278.6l-46.53,26.79-33.69,19.4V123.5l46.53-26.79Zm0,412.78L23.37,388.5V77.32L57.06,96.7l46.52,26.8V338.68a6.94,6.94,0,0,0,.12.9,8,8,0,0,0,.16,1.18h0a5.92,5.92,0,0,0,.38.9,6.38,6.38,0,0,0,.42,1v0a8.54,8.54,0,0,0,.6.78,7.62,7.62,0,0,0,.66.84l0,0c.23.22.52.38.77.58a8.93,8.93,0,0,0,.86.66l0,0,0,0,92.19,52.18Zm8-106.17-80.06-45.32,84.09-48.41,92.26-53.11,80.13,46.13-58.8,33.56Zm184.52,4.57L215.88,490.11V397.8L346.6,323.2l45.77-26.15Zm0-119.13L358.68,250l-46.53-26.79V131.79l33.69,19.4L392.37,178Zm8-105.28-80.2-46.17,80.2-46.16,80.18,46.15Zm8,105.28V178L455,151.19l33.68-19.4v91.39h0Z"/></svg>
